Newaita-dark/apps/16/redshift.svg

<?xml version="1.0" encoding="UTF-8"?>
<svg xmlns="http://www.w3.org/2000/svg" xmlns:xlink="http://www.w3.org/1999/xlink" width="16pt" height="16pt" viewBox="0 0 16 16" version="1.1">
<defs>
<linearGradient id="linear0" gradientUnits="userSpaceOnUse" x1="317.5" y1="127.666656" x2="317.5" y2="-167.166016" gradientTransform="matrix(0.031253,0,0,0.031253,0.330761,6.719392)">
<stop offset="0" style="stop-color:rgb(69.019608%,74.509804%,77.254902%);stop-opacity:1;"/>
<stop offset="1" style="stop-color:rgb(81.176471%,84.705882%,86.27451%);stop-opacity:1;"/>
</linearGradient>
<radialGradient id="radial0" gradientUnits="userSpaceOnUse" cx="450.908936" cy="189.579361" fx="450.908936" fy="189.579361" r="21.166656" gradientTransform="matrix(0.0000000870852,-0.0390662,-0.0703192,-0.0000000507693,17.465547,31.797665)">
<stop offset="0" style="stop-color:rgb(0%,0%,0%);stop-opacity:0.313725;"/>
<stop offset="0.222222" style="stop-color:rgb(0%,0%,0%);stop-opacity:0.27451;"/>
<stop offset="1" style="stop-color:rgb(0%,0%,0%);stop-opacity:0;"/>
</radialGradient>
<radialGradient id="radial1" gradientUnits="userSpaceOnUse" cx="450.908936" cy="189.579361" fx="450.908936" fy="189.579361" r="21.166656" gradientTransform="matrix(-0.0000000870852,0.0390662,0.0703192,0.0000000507693,-8.865763,-3.763741)">
<stop offset="0" style="stop-color:rgb(0%,0%,0%);stop-opacity:0.313725;"/>
<stop offset="0.222222" style="stop-color:rgb(0%,0%,0%);stop-opacity:0.27451;"/>
<stop offset="1" style="stop-color:rgb(0%,0%,0%);stop-opacity:0;"/>
</radialGradient>
<radialGradient id="radial2" gradientUnits="userSpaceOnUse" cx="450.908936" cy="189.579361" fx="450.908936" fy="189.579361" r="21.166656" gradientTransform="matrix(-0.0000000870852,-0.0390662,0.0703192,-0.0000000507693,-8.865763,31.797665)">
<stop offset="0" style="stop-color:rgb(0%,0%,0%);stop-opacity:0.313725;"/>
<stop offset="0.222222" style="stop-color:rgb(0%,0%,0%);stop-opacity:0.27451;"/>
<stop offset="1" style="stop-color:rgb(0%,0%,0%);stop-opacity:0;"/>
</radialGradient>
<radialGradient id="radial3" gradientUnits="userSpaceOnUse" cx="450.908936" cy="189.579361" fx="450.908936" fy="189.579361" r="21.166656" gradientTransform="matrix(0.0000000870852,0.0390662,-0.0703192,0.0000000507693,17.465546,-3.763741)">
<stop offset="0" style="stop-color:rgb(0%,0%,0%);stop-opacity:0.313725;"/>
<stop offset="0.222222" style="stop-color:rgb(0%,0%,0%);stop-opacity:0.27451;"/>
<stop offset="1" style="stop-color:rgb(0%,0%,0%);stop-opacity:0;"/>
</radialGradient>
<linearGradient id="linear1" gradientUnits="userSpaceOnUse" x1="169.333328" y1="233.5" x2="169.333328" y2="222.916672" gradientTransform="matrix(1,0,0,1,-31.75,0)">
<stop offset="0" style="stop-color:rgb(100%,87.843137%,69.803922%);stop-opacity:1;"/>
<stop offset="1" style="stop-color:rgb(87.843137%,87.843137%,87.843137%);stop-opacity:1;"/>
</linearGradient>
<linearGradient id="linear2" gradientUnits="userSpaceOnUse" x1="169.333328" y1="212.333328" x2="169.333328" y2="64.166664" gradientTransform="matrix(1,0,0,1,-31.75,10.583323)">
<stop offset="0" style="stop-color:rgb(100%,87.843137%,69.803922%);stop-opacity:1;"/>
<stop offset="1" style="stop-color:rgb(87.843137%,87.843137%,87.843137%);stop-opacity:1;"/>
</linearGradient>
<linearGradient id="linear3" gradientUnits="userSpaceOnUse" x1="640" y1="1215.118164" x2="640" y2="375.118103" gradientTransform="matrix(0.00826902,0,0,0.00826902,-0.992282,0.330768)">
<stop offset="0" style="stop-color:rgb(95.686275%,26.27451%,21.176471%);stop-opacity:1;"/>
<stop offset="1" style="stop-color:rgb(93.72549%,32.54902%,31.372549%);stop-opacity:1;"/>
</linearGradient>
<linearGradient id="linear4" gradientUnits="userSpaceOnUse" x1="670" y1="1395.118164" x2="680" y2="1325.118164" gradientTransform="matrix(0.264583,0,0,0.264583,-31.75,-215)">
<stop offset="0" style="stop-color:rgb(100%,87.843137%,69.803922%);stop-opacity:1;"/>
<stop offset="1" style="stop-color:rgb(87.843137%,87.843137%,87.843137%);stop-opacity:1;"/>
</linearGradient>
<linearGradient id="linear5" gradientUnits="userSpaceOnUse" x1="640" y1="1555.118164" x2="660" y2="1475.118164" gradientTransform="matrix(0.264583,0,0,0.264583,-31.75,-215)">
<stop offset="0" style="stop-color:rgb(100%,87.843137%,69.803922%);stop-opacity:1;"/>
<stop offset="1" style="stop-color:rgb(87.843137%,87.843137%,87.843137%);stop-opacity:1;"/>
</linearGradient>
</defs>
<g id="surface1">
<path style=" stroke:none;fill-rule:nonzero;fill:url(#linear0);" d="M 10.253906 1.449219 C 12.8125 1.449219 14.882812 3.519531 14.882812 6.078125 C 14.882812 8.636719 12.8125 10.710938 10.253906 10.710938 C 7.695312 10.710938 5.621094 8.636719 5.621094 6.078125 C 5.621094 3.519531 7.695312 1.449219 10.253906 1.449219 Z M 10.253906 1.449219 "/>
<path style=" stroke:none;fill-rule:nonzero;fill:rgb(100%,100%,100%);fill-opacity:0.392157;" d="M 10.253906 1.449219 C 7.6875 1.449219 5.621094 3.511719 5.621094 6.078125 C 5.621094 6.105469 5.625 6.132812 5.625 6.160156 C 5.667969 3.632812 7.714844 1.613281 10.253906 1.613281 C 12.792969 1.613281 14.839844 3.632812 14.882812 6.160156 C 14.882812 6.132812 14.882812 6.105469 14.882812 6.078125 C 14.882812 3.511719 12.820312 1.449219 10.253906 1.449219 Z M 10.253906 1.449219 "/>
<path style=" stroke:none;fill-rule:nonzero;fill:rgb(0%,0%,0%);fill-opacity:0.235294;" d="M 10.253906 10.710938 C 7.6875 10.710938 5.621094 8.644531 5.621094 6.078125 C 5.621094 6.050781 5.625 6.023438 5.625 5.996094 C 5.667969 8.523438 7.714844 10.542969 10.253906 10.542969 C 12.792969 10.542969 14.839844 8.523438 14.882812 5.996094 C 14.882812 6.023438 14.882812 6.050781 14.882812 6.078125 C 14.882812 8.644531 12.820312 10.710938 10.253906 10.710938 Z M 10.253906 10.710938 "/>
<path style=" stroke:none;fill-rule:nonzero;fill:rgb(20%,20%,20%);fill-opacity:1;" d="M 10.253906 1.402344 C 7.664062 1.402344 5.574219 3.488281 5.574219 6.078125 C 5.574219 8.667969 7.664062 10.757812 10.253906 10.757812 C 12.84375 10.757812 14.929688 8.667969 14.929688 6.078125 C 14.929688 3.488281 12.84375 1.402344 10.253906 1.402344 Z M 10.253906 1.496094 C 12.792969 1.496094 14.835938 3.539062 14.835938 6.078125 C 14.835938 8.617188 12.792969 10.664062 10.253906 10.664062 C 7.714844 10.664062 5.667969 8.617188 5.667969 6.078125 C 5.667969 3.539062 7.714844 1.496094 10.253906 1.496094 Z M 10.253906 1.496094 "/>
<path style=" stroke:none;fill-rule:nonzero;fill:url(#radial0);" d="M 4.300781 14.015625 L 5.621094 14.015625 L 5.621094 13.355469 L 4.300781 13.355469 Z M 4.300781 14.015625 "/>
<path style=" stroke:none;fill-rule:nonzero;fill:url(#radial1);" d="M 4.300781 14.015625 L 2.976562 14.015625 L 2.976562 14.679688 L 4.300781 14.679688 Z M 4.300781 14.015625 "/>
<path style=" stroke:none;fill-rule:nonzero;fill:url(#radial2);" d="M 4.300781 14.015625 L 2.976562 14.015625 L 2.976562 13.355469 L 4.300781 13.355469 Z M 4.300781 14.015625 "/>
<path style=" stroke:none;fill-rule:nonzero;fill:url(#radial3);" d="M 4.300781 14.015625 L 5.621094 14.015625 L 5.621094 14.679688 L 4.300781 14.679688 Z M 4.300781 14.015625 "/>
<path style="fill-rule:nonzero;fill:url(#linear1);stroke-width:3;stroke-linecap:round;stroke-linejoin:round;stroke:rgb(12.941177%,12.941177%,12.941177%);stroke-opacity:1;stroke-miterlimit:4;" d="M 137.611859 191.211209 C 149.235749 191.211209 158.734842 196.835672 158.734842 203.710015 L 158.734842 220.958368 C 158.734842 227.832712 149.235749 233.457174 137.611859 233.457174 C 125.862981 233.457174 116.363888 227.832712 116.363888 220.958368 L 116.363888 203.710015 C 116.363888 196.835672 125.862981 191.211209 137.611859 191.211209 Z M 137.611859 191.211209 " transform="matrix(0.031253,0,0,0.031253,0,6.719392)"/>
<path style="fill-rule:nonzero;fill:url(#linear2);stroke-width:3;stroke-linecap:round;stroke-linejoin:round;stroke:rgb(12.941177%,12.941177%,12.941177%);stroke-opacity:1;stroke-miterlimit:4;" d="M 136.611954 74.722333 L 138.611763 74.722333 C 161.359591 74.722333 179.857824 79.471879 179.857824 85.346318 L 179.857824 212.334192 C 179.857824 218.208631 161.359591 222.958177 138.611763 222.958177 L 136.611954 222.958177 C 113.739138 222.958177 95.240905 218.208631 95.240905 212.334192 L 95.240905 85.346318 C 95.240905 79.471879 113.739138 74.722333 136.611954 74.722333 Z M 136.611954 74.722333 " transform="matrix(0.031253,0,0,0.031253,0,6.719392)"/>
<path style=" stroke:none;fill-rule:nonzero;fill:url(#linear3);" d="M 4.300781 3.433594 C 2.46875 3.433594 0.992188 4.90625 0.992188 6.738281 C 0.992188 7.96875 1.65625 9.039062 2.648438 9.609375 C 2.695312 10.039062 3.253906 10.378906 3.9375 10.378906 L 4.660156 10.378906 C 5.347656 10.378906 5.902344 10.039062 5.949219 9.609375 C 6.941406 9.039062 7.609375 7.96875 7.609375 6.738281 C 7.609375 4.90625 6.132812 3.433594 4.300781 3.433594 Z M 4.300781 3.433594 "/>
<path style="fill-rule:nonzero;fill:url(#linear4);stroke-width:3;stroke-linecap:round;stroke-linejoin:round;stroke:rgb(12.941177%,12.941177%,12.941177%);stroke-opacity:1;stroke-miterlimit:4;" d="M 95.240905 122.342785 C 89.366466 122.342785 84.616919 127.092332 84.616919 132.966771 C 84.616919 138.84121 89.366466 143.590756 95.240905 143.590756 L 179.857824 164.713739 C 185.732263 164.713739 190.48181 159.964193 190.48181 154.089754 C 190.48181 148.215315 185.732263 143.590756 179.857824 143.590756 Z M 95.240905 122.342785 " transform="matrix(0.031253,0,0,0.031253,0,6.719392)"/>
<path style="fill-rule:nonzero;fill:url(#linear5);stroke-width:3;stroke-linecap:round;stroke-linejoin:round;stroke:rgb(12.941177%,12.941177%,12.941177%);stroke-opacity:1;stroke-miterlimit:4;" d="M 95.240905 164.713739 C 89.366466 164.713739 84.616919 169.463286 84.616919 175.337725 C 84.616919 181.212164 89.366466 185.836722 95.240905 185.836722 L 179.857824 207.084693 C 185.732263 207.084693 190.48181 202.335146 190.48181 196.460707 C 190.48181 190.586268 185.732263 185.836722 179.857824 185.836722 Z M 95.240905 164.713739 " transform="matrix(0.031253,0,0,0.031253,0,6.719392)"/>
<path style=" stroke:none;fill-rule:nonzero;fill:rgb(100%,100%,100%);fill-opacity:0.392157;" d="M 4.300781 3.433594 C 2.46875 3.433594 0.992188 4.90625 0.992188 6.738281 C 0.992188 6.765625 0.992188 6.792969 0.992188 6.820312 C 1.039062 5.027344 2.496094 3.597656 4.300781 3.597656 C 6.105469 3.597656 7.5625 5.027344 7.605469 6.820312 C 7.605469 6.792969 7.609375 6.765625 7.609375 6.738281 C 7.609375 4.90625 6.132812 3.433594 4.300781 3.433594 Z M 4.300781 3.433594 "/>
<path style=" stroke:none;fill-rule:nonzero;fill:rgb(0%,0%,0%);fill-opacity:0.235294;" d="M 0.992188 6.652344 C 0.992188 6.667969 0.992188 6.683594 0.992188 6.695312 C 0.992188 7.925781 1.65625 8.996094 2.648438 9.566406 C 2.695312 9.996094 3.253906 10.335938 3.9375 10.335938 L 4.660156 10.335938 C 5.347656 10.335938 5.902344 9.996094 5.949219 9.566406 C 6.941406 8.996094 7.609375 7.925781 7.609375 6.695312 C 7.609375 6.683594 7.605469 6.667969 7.605469 6.652344 C 7.59375 7.867188 6.933594 8.921875 5.949219 9.484375 C 5.902344 9.917969 5.347656 10.253906 4.660156 10.253906 L 3.9375 10.253906 C 3.253906 10.253906 2.695312 9.917969 2.648438 9.484375 C 1.667969 8.921875 1.003906 7.867188 0.992188 6.652344 Z M 0.992188 6.652344 "/>
<path style=" stroke:none;fill-rule:nonzero;fill:rgb(12.941177%,12.941177%,12.941177%);fill-opacity:1;" d="M 4.300781 3.386719 C 2.441406 3.386719 0.945312 4.882812 0.945312 6.738281 C 0.945312 7.980469 1.613281 9.058594 2.609375 9.640625 C 2.644531 9.863281 2.800781 10.058594 3.03125 10.195312 C 3.269531 10.339844 3.589844 10.425781 3.9375 10.425781 L 4.660156 10.425781 C 5.011719 10.425781 5.332031 10.339844 5.570312 10.195312 C 5.800781 10.058594 5.957031 9.863281 5.992188 9.640625 C 6.988281 9.058594 7.65625 7.980469 7.65625 6.738281 C 7.65625 4.882812 6.15625 3.386719 4.300781 3.386719 Z M 4.300781 3.480469 C 6.105469 3.480469 7.5625 4.933594 7.5625 6.738281 C 7.5625 7.953125 6.90625 9.007812 5.925781 9.570312 C 5.914062 9.578125 5.90625 9.589844 5.902344 9.605469 C 5.882812 9.800781 5.742188 9.980469 5.519531 10.117188 C 5.300781 10.25 4.996094 10.332031 4.660156 10.332031 L 3.9375 10.332031 C 3.601562 10.332031 3.300781 10.25 3.078125 10.117188 C 2.855469 9.980469 2.71875 9.800781 2.695312 9.605469 C 2.695312 9.589844 2.6875 9.578125 2.671875 9.570312 C 1.695312 9.007812 1.039062 7.953125 1.039062 6.738281 C 1.039062 4.933594 2.492188 3.480469 4.300781 3.480469 Z M 4.300781 3.480469 "/>
<path style=" stroke:none;fill-rule:evenodd;fill:rgb(100%,67.058825%,56.862748%);fill-opacity:1;" d="M 2.582031 5.996094 L 3.261719 9.726562 L 3.355469 9.707031 L 2.710938 6.164062 L 3.304688 6.460938 L 4.300781 6.128906 L 5.296875 6.460938 L 5.890625 6.164062 L 5.246094 9.707031 L 5.339844 9.726562 L 6.015625 5.996094 L 5.289062 6.359375 L 4.300781 6.027344 L 3.3125 6.359375 Z M 2.582031 5.996094 "/>
<path style="fill-rule:nonzero;fill:rgb(50.588238%,83.137256%,98.039216%);fill-opacity:0.235294;stroke-width:11.338583;stroke-linecap:round;stroke-linejoin:round;stroke:rgb(12.941177%,12.941177%,12.941177%);stroke-opacity:1;stroke-miterlimit:4;" d="M 439.800544 1175.320895 C 418.070334 1175.320895 400.119292 1200.830271 400.119292 1232.480794 L 400.119292 1237.677148 C 400.119292 1239.566732 400.119292 1240.983919 400.119292 1242.401107 C 422.794293 1250.431837 448.776065 1255.155795 476.175025 1255.155795 L 563.568259 1255.155795 C 591.439614 1255.155795 617.421387 1250.431837 639.623992 1242.401107 C 640.096388 1240.983919 640.096388 1239.566732 640.096388 1237.677148 L 640.096388 1232.480794 C 640.096388 1200.830271 622.145345 1175.320895 599.94274 1175.320895 Z M 439.800544 1175.320895 " transform="matrix(0.00826902,0,0,0.00826902,0,0)"/>
</g>
</svg>

<svg xmlns="http://www.w3.org/2000/svg" width="16pt" height="16pt" viewBox="0 0 16 16"><defs><linearGradient id="a" gradientUnits="userSpaceOnUse" x1="317.5" y1="127.667" x2="317.5" y2="-167.166" gradientTransform="matrix(.03125 0 0 .03125 .33 6.72)"><stop offset="0" stop-color="#b0bec5"/><stop offset="1" stop-color="#cfd8dc"/></linearGradient><radialGradient id="b" gradientUnits="userSpaceOnUse" cx="450.909" cy="189.579" fx="450.909" fy="189.579" r="21.167" gradientTransform="matrix(0 -.03907 -.07032 0 17.466 31.798)"><stop offset="0" stop-opacity=".314"/><stop offset=".222" stop-opacity=".275"/><stop offset="1" stop-opacity="0"/></radialGradient><radialGradient id="c" gradientUnits="userSpaceOnUse" cx="450.909" cy="189.579" fx="450.909" fy="189.579" r="21.167" gradientTransform="matrix(0 .03907 .07032 0 -8.866 -3.764)"><stop offset="0" stop-opacity=".314"/><stop offset=".222" stop-opacity=".275"/><stop offset="1" stop-opacity="0"/></radialGradient><radialGradient id="d" gradientUnits="userSpaceOnUse" cx="450.909" cy="189.579" fx="450.909" fy="189.579" r="21.167" gradientTransform="matrix(0 -.03907 .07032 0 -8.866 31.798)"><stop offset="0" stop-opacity=".314"/><stop offset=".222" stop-opacity=".275"/><stop offset="1" stop-opacity="0"/></radialGradient><radialGradient id="e" gradientUnits="userSpaceOnUse" cx="450.909" cy="189.579" fx="450.909" fy="189.579" r="21.167" gradientTransform="matrix(0 .03907 -.07032 0 17.466 -3.764)"><stop offset="0" stop-opacity=".314"/><stop offset=".222" stop-opacity=".275"/><stop offset="1" stop-opacity="0"/></radialGradient><linearGradient id="f" gradientUnits="userSpaceOnUse" x1="169.333" y1="233.5" x2="169.333" y2="222.917" gradientTransform="translate(-31.75)"><stop offset="0" stop-color="#ffe0b2"/><stop offset="1" stop-color="#e0e0e0"/></linearGradient><linearGradient id="g" gradientUnits="userSpaceOnUse" x1="169.333" y1="212.333" x2="169.333" y2="64.167" gradientTransform="translate(-31.75 10.583)"><stop offset="0" stop-color="#ffe0b2"/><stop offset="1" stop-color="#e0e0e0"/></linearGradient><linearGradient id="h" gradientUnits="userSpaceOnUse" x1="640" y1="1215.118" x2="640" y2="375.118" gradientTransform="matrix(.00827 0 0 .00827 -.992 .33)"><stop offset="0" stop-color="#f44336"/><stop offset="1" stop-color="#ef5350"/></linearGradient><linearGradient id="i" gradientUnits="userSpaceOnUse" x1="670" y1="1395.118" x2="680" y2="1325.118" gradientTransform="matrix(.26458 0 0 .26458 -31.75 -215)"><stop offset="0" stop-color="#ffe0b2"/><stop offset="1" stop-color="#e0e0e0"/></linearGradient><linearGradient id="j" gradientUnits="userSpaceOnUse" x1="640" y1="1555.118" x2="660" y2="1475.118" gradientTransform="matrix(.26458 0 0 .26458 -31.75 -215)"><stop offset="0" stop-color="#ffe0b2"/><stop offset="1" stop-color="#e0e0e0"/></linearGradient></defs><path d="M10.254 1.45a4.626 4.626 0 0 1 4.629 4.628 4.63 4.63 0 0 1-4.63 4.633 4.633 4.633 0 0 1-4.632-4.633 4.63 4.63 0 0 1 4.633-4.629zm0 0" fill="url(#a)"/><path d="M10.254 1.45A4.62 4.62 0 0 0 5.62 6.077c0 .027.004.055.004.082a4.617 4.617 0 0 1 4.629-4.547c2.539 0 4.586 2.02 4.629 4.547v-.082a4.616 4.616 0 0 0-4.63-4.629zm0 0" fill="#fff" fill-opacity=".392"/><path d="M10.254 10.71A4.623 4.623 0 0 1 5.62 6.079c0-.027.004-.055.004-.082a4.617 4.617 0 0 0 4.629 4.547c2.539 0 4.586-2.02 4.629-4.547v.082a4.62 4.62 0 0 1-4.63 4.633zm0 0" fill-opacity=".235"/><path d="M10.254 1.402a4.67 4.67 0 0 0-4.68 4.676c0 2.59 2.09 4.68 4.68 4.68a4.67 4.67 0 0 0 4.676-4.68 4.666 4.666 0 0 0-4.676-4.676zm0 .094a4.571 4.571 0 0 1 4.582 4.582 4.575 4.575 0 0 1-4.582 4.586 4.578 4.578 0 0 1-4.586-4.586 4.575 4.575 0 0 1 4.586-4.582zm0 0" fill="#333"/><path d="M4.3 14.016h1.321v-.66h-1.32zm0 0" fill="url(#b)"/><path d="M4.3 14.016H2.978v.664H4.3zm0 0" fill="url(#c)"/><path d="M4.3 14.016H2.978v-.66H4.3zm0 0" fill="url(#d)"/><path d="M4.3 14.016h1.321v.664h-1.32zm0 0" fill="url(#e)"/><path d="M137.612 191.211c11.624 0 21.123 5.625 21.123 12.499v17.248c0 6.875-9.5 12.5-21.123 12.5-11.749 0-21.248-5.625-21.248-12.5V203.71c0-6.874 9.499-12.499 21.248-12.499zm0 0" transform="matrix(.03125 0 0 .03125 0 6.72)" fill="url(#f)" stroke-width="3" stroke-linecap="round" stroke-linejoin="round" stroke="#212121"/><path d="M136.612 74.722h2c22.748 0 41.246 4.75 41.246 10.624v126.988c0 5.875-18.498 10.624-41.246 10.624h-2c-22.873 0-41.371-4.75-41.371-10.624V85.346c0-5.874 18.498-10.624 41.371-10.624zm0 0" transform="matrix(.03125 0 0 .03125 0 6.72)" fill="url(#g)" stroke-width="3" stroke-linecap="round" stroke-linejoin="round" stroke="#212121"/><path d="M4.3 3.434A3.3 3.3 0 0 0 .993 6.738c0 1.23.664 2.301 1.656 2.871.047.43.606.77 1.29.77h.722c.688 0 1.242-.34 1.29-.77a3.305 3.305 0 0 0 1.66-2.87A3.3 3.3 0 0 0 4.3 3.433zm0 0" fill="url(#h)"/><path d="M95.24 122.343a10.615 10.615 0 0 0-10.623 10.624c0 5.874 4.75 10.624 10.624 10.624l84.617 21.123c5.874 0 10.624-4.75 10.624-10.624 0-5.875-4.75-10.5-10.624-10.5zm0 0" transform="matrix(.03125 0 0 .03125 0 6.72)" fill="url(#i)" stroke-width="3" stroke-linecap="round" stroke-linejoin="round" stroke="#212121"/><path d="M95.24 164.714a10.615 10.615 0 0 0-10.623 10.624c0 5.874 4.75 10.499 10.624 10.499l84.617 21.248c5.874 0 10.624-4.75 10.624-10.624 0-5.875-4.75-10.624-10.624-10.624zm0 0" transform="matrix(.03125 0 0 .03125 0 6.72)" fill="url(#j)" stroke-width="3" stroke-linecap="round" stroke-linejoin="round" stroke="#212121"/><path d="M4.3 3.434A3.3 3.3 0 0 0 .993 6.738v.082a3.303 3.303 0 0 1 3.309-3.222A3.297 3.297 0 0 1 7.605 6.82c0-.027.004-.054.004-.082a3.3 3.3 0 0 0-3.308-3.304zm0 0" fill="#fff" fill-opacity=".392"/><path d="M.992 6.652v.043c0 1.23.664 2.301 1.656 2.871.047.43.606.77 1.29.77h.722c.688 0 1.242-.34 1.29-.77a3.305 3.305 0 0 0 1.66-2.87c0-.012-.005-.028-.005-.044A3.288 3.288 0 0 1 5.95 9.484c-.047.434-.601.77-1.289.77h-.723c-.683 0-1.242-.336-1.289-.77A3.296 3.296 0 0 1 .992 6.652zm0 0" fill-opacity=".235"/><path d="M4.3 3.387A3.347 3.347 0 0 0 .946 6.738c0 1.242.668 2.32 1.664 2.903.036.222.192.418.422.554.239.145.559.23.906.23h.723c.352 0 .672-.085.91-.23.23-.136.387-.332.422-.554a3.351 3.351 0 0 0 1.664-2.903 3.35 3.35 0 0 0-3.355-3.351zm0 .093a3.254 3.254 0 0 1 3.263 3.258c0 1.215-.657 2.27-1.637 2.832a.057.057 0 0 0-.024.035c-.02.196-.16.375-.382.512a1.685 1.685 0 0 1-.86.215h-.723c-.335 0-.636-.082-.859-.215-.223-.137-.36-.316-.383-.512 0-.015-.007-.027-.023-.035a3.259 3.259 0 0 1-1.633-2.832A3.252 3.252 0 0 1 4.301 3.48zm0 0" fill="#212121"/><path d="M2.582 5.996l.68 3.73.093-.019-.644-3.543.594.297.996-.332.996.332.594-.297-.645 3.543.094.02.676-3.73-.727.362-.988-.332-.989.332zm0 0" fill-rule="evenodd" fill="#ffab91"/><path d="M3.637 9.719c-.18 0-.328.21-.328.472V10.274c.187.066.402.105.629.105h.722c.23 0 .445-.04.63-.106.003-.011.003-.023.003-.039v-.043c0-.261-.148-.472-.332-.472zm0 0" fill="#81d4fa" fill-opacity=".235" stroke-width=".09377353" stroke-linecap="round" stroke-linejoin="round" stroke="#212121"/></svg>
